svgs/solid/vector-circle.svg

<svg xmlns="http://www.w3.org/2000/svg" viewBox="0 0 512 512"><!--! Font Awesome Pro 6.2.0 by @fontawesome - https://fontawesome.com License - https://fontawesome.com/license (Commercial License) Copyright 2022 Fonticons, Inc. --><path d="M192 32c0-17.7 14.3-32 32-32h64c17.7 0 32 14.3 32 32v9.3C392.2 62.8 449.2 119.8 470.7 192H480c17.7 0 32 14.3 32 32v64c0 17.7-14.3 32-32 32h-9.3C449.2 392.2 392.2 449.2 320 470.7V480c0 17.7-14.3 32-32 32H224c-17.7 0-32-14.3-32-32v-9.3C119.8 449.2 62.8 392.2 41.3 320H32c-17.7 0-32-14.3-32-32V224c0-17.7 14.3-32 32-32h9.3C62.8 119.8 119.8 62.8 192 41.3V32zM403.7 194.4c-16.2-38.9-47.3-70-86.2-86.2C312.7 119.9 301.3 128 288 128H224c-13.3 0-24.7-8.1-29.6-19.7c-38.9 16.2-70 47.3-86.2 86.2c11.6 4.8 19.7 16.2 19.7 29.6v64c0 13.3-8.1 24.7-19.7 29.6c16.2 38.9 47.3 70 86.2 86.2c4.8-11.6 16.2-19.7 29.6-19.7h64c13.3 0 24.7 8.1 29.6 19.7c38.9-16.2 70-47.3 86.2-86.2C392.1 312.7 384 301.3 384 288V224c0-13.3 8.1-24.7 19.7-29.6zM240 48V80h32V48H240zm32 384H240v32h32V432zM432 240v32h32V240H432zM80 240H48v32H80V240z"/></svg>

<svg xmlns="http://www.w3.org/2000/svg" viewBox="0 0 512 512"><!--! Font Awesome Pro 6.1.2 by @fontawesome - https://fontawesome.com License - https://fontawesome.com/license (Commercial License) Copyright 2022 Fonticons, Inc. --><path d="M192 32C192 14.33 206.3 0 224 0H288C305.7 0 320 14.33 320 32V41.28C392.2 62.78 449.2 119.8 470.7 192H480C497.7 192 512 206.3 512 224V288C512 305.7 497.7 320 480 320H470.7C449.2 392.2 392.2 449.2 320 470.7V480C320 497.7 305.7 512 288 512H224C206.3 512 192 497.7 192 480V470.7C119.8 449.2 62.78 392.2 41.28 320H32C14.33 320 0 305.7 0 288V224C0 206.3 14.33 192 32 192H41.28C62.78 119.8 119.8 62.78 192 41.28V32zM317.6 108.3C312.7 119.9 301.3 128 288 128H224C210.7 128 199.3 119.9 194.4 108.3C155.6 124.5 124.5 155.6 108.3 194.4C119.9 199.3 128 210.7 128 224V288C128 301.3 119.9 312.7 108.3 317.6C124.5 356.4 155.6 387.5 194.4 403.7C199.3 392.1 210.7 384 224 384H288C301.3 384 312.7 392.1 317.6 403.7C356.4 387.5 387.5 356.4 403.7 317.6C392.1 312.7 384 301.3 384 288V224C384 210.7 392.1 199.3 403.7 194.4C387.5 155.6 356.4 124.5 317.6 108.3zM240 80H272V48H240V80zM272 432H240V464H272V432zM432 272H464V240H432V272zM80 240H48V272H80V240z"/></svg>
